X:58
T: PREIS DIR HERMANN VOLKSERRETTER
N: B0078
O: Europa, Mitteleuropa, Deutschland
R: Helden -, Ehren -, Gedaechtnis -, Kriegs - Lied
M: 4/4
L: 1/8
K: Eb
 | E2F2G2G2 | GAGFFEE2
G2A2B2B2 | BcBAAGG2
B3GF2F2 | F2GED2z2
F2GAG2ed | dcB=AB2z2
B3G_A2F2 | G2FEEDD2
B3GA2F2 | G2FEEDD2
c2c2BeG2 | BAGFE2z2

